assets/img/plunks/plunk-rso-3.svg

<svg width="60" height="60" viewBox="0 0 60 60" fill="none" xmlns="http://www.w3.org/2000/svg">
<path d="M50.625 7.5H16.875C16.3777 7.5 15.9008 7.69754 15.5492 8.04918C15.1975 8.40081 15 8.87772 15 9.375C15 9.87228 15.1975 10.3492 15.5492 10.7008C15.9008 11.0525 16.3777 11.25 16.875 11.25H48.75V43.125C48.75 43.6223 48.9475 44.0992 49.2992 44.4508C49.6508 44.8025 50.1277 45 50.625 45C51.1223 45 51.5992 44.8025 51.9508 44.4508C52.3025 44.0992 52.5 43.6223 52.5 43.125V9.375C52.5 8.87772 52.3025 8.40081 51.9508 8.04918C51.5992 7.69754 51.1223 7.5 50.625 7.5Z" fill="#00A0E3"/>
<path d="M43.125 15H9.375C8.33947 15 7.5 15.8395 7.5 16.875V50.625C7.5 51.6605 8.33947 52.5 9.375 52.5H43.125C44.1605 52.5 45 51.6605 45 50.625V16.875C45 15.8395 44.1605 15 43.125 15Z" fill="#00A0E3"/>
</svg>

<svg width="60" height="60" fill="none" xmlns="http://www.w3.org/2000/svg"><path d="M50.625 7.5h-33.75a1.875 1.875 0 100 3.75H48.75v31.875a1.875 1.875 0 103.75 0V9.375A1.875 1.875 0 0050.625 7.5z" fill="#00A0E3"/><path d="M43.125 15H9.375c-1.036 0-1.875.84-1.875 1.875v33.75c0 1.035.84 1.875 1.875 1.875h33.75c1.035 0 1.875-.84 1.875-1.875v-33.75C45 15.839 44.16 15 43.125 15z" fill="#00A0E3"/></svg>
